src/public/images/news-first-block-left.svg

<svg width="90" height="116" viewBox="0 0 90 116" fill="none" xmlns="http://www.w3.org/2000/svg">
<path d="M53.8184 49.8584H63.3854V112.659L53.8184 116V49.8584Z" fill="#575775"/>
<path d="M63.3848 49.8584H74.626V106.145L63.3848 112.659V49.8584Z" fill="#262541"/>
<path fill-rule="evenodd" clip-rule="evenodd" d="M39.7042 19.7804H89.9311C89.9311 14.6909 89.9311 12.1462 89.3458 10.0868C88.1629 5.92448 85.3085 2.66121 81.6678 1.3088C79.8664 0.639648 77.6406 0.639648 73.1888 0.639648H28.7021V0.682762C34.8595 1.23996 39.7042 7.12897 39.7042 14.3116V19.7804Z" fill="#9F9DC8"/>
<path d="M13.1567 14.3116C13.1567 6.7608 18.5109 0.639648 25.1155 0.639648H27.7465C34.3511 0.639648 39.7053 6.7608 39.7053 14.3116V49.8588H16.0268C14.4417 49.8588 13.1567 48.3897 13.1567 46.5775V14.3116Z" fill="#575775"/>
<path d="M15.7881 13.7647C15.7881 6.51596 20.9281 0.639648 27.2685 0.639648V0.639648C33.609 0.639648 38.749 6.51596 38.749 13.7647V45.2103C38.749 47.0225 37.464 48.4916 35.8789 48.4916H15.7881V13.7647Z" fill="#494967"/>
<path d="M2.39453 16.4996C2.39453 13.1772 4.75035 10.4839 7.6564 10.4839H37.7925C40.6986 10.4839 43.0544 13.1772 43.0544 16.4996V37.8278C43.0544 41.1502 40.6986 43.8435 37.7925 43.8435H7.6564C4.75035 43.8435 2.39453 41.1502 2.39453 37.8278V16.4996Z" fill="#EFEFF6"/>
<path fill-rule="evenodd" clip-rule="evenodd" d="M12.0927 19.7381C12.5425 19.0036 13.428 18.8249 14.0705 19.3391L22.7235 26.2639L31.3765 19.3391C32.019 18.8249 32.9045 19.0036 33.3543 19.7381C33.804 20.4727 33.6478 21.485 33.0053 21.9992L23.5379 29.5758C23.0489 29.9671 22.3981 29.9671 21.9091 29.5758L12.4418 21.9992C11.7992 21.485 11.643 20.4727 12.0927 19.7381Z" fill="#262541"/>
<path fill-rule="evenodd" clip-rule="evenodd" d="M7.57571 13.6338C6.26854 13.6338 5.20886 14.8453 5.20886 16.3397V37.987C5.20886 39.4815 6.26852 40.6929 7.57571 40.6929H37.8713C39.1785 40.6929 40.2382 39.4815 40.2382 37.987V16.3397C40.2382 14.8453 39.1785 13.6338 37.8713 13.6338H7.57571ZM2.36865 16.3397C2.36865 13.052 4.69993 10.3867 7.57571 10.3867H37.8713C40.7472 10.3867 43.0784 13.052 43.0784 16.3397V37.987C43.0784 41.2748 40.7471 43.94 37.8713 43.94H7.57571C4.69994 43.94 2.36865 41.2749 2.36865 37.987V16.3397Z" fill="#262541"/>
<path d="M38.749 8.84277H77.6868C81.9733 8.84277 84.1165 8.84277 85.7537 9.79647C87.1938 10.6354 88.3647 11.974 89.0984 13.6204C89.9326 15.4921 89.9326 17.9424 89.9326 22.8429V44.6087C89.9326 46.4464 89.9326 47.3652 89.6198 48.0671C89.3447 48.6845 88.9056 49.1865 88.3655 49.5011C87.7516 49.8587 86.9479 49.8587 85.3405 49.8587H38.749V8.84277Z" fill="#6F6F8D"/>
</svg>

<svg xmlns="http://www.w3.org/2000/svg" width="90" height="116" fill="none"><path fill="#575775" d="M53.818 49.858h9.567v62.801L53.818 116V49.858Z"/><path fill="#262541" d="M63.385 49.858h11.241v56.287l-11.241 6.514v-62.8Z"/><path fill="#9F9DC8" fill-rule="evenodd" d="M39.704 19.78h50.227c0-5.09 0-7.634-.585-9.693-1.183-4.163-4.038-7.426-7.678-8.778-1.802-.67-4.027-.67-8.48-.67H28.703v.044c6.157.557 11.002 6.446 11.002 13.629v5.468Z" clip-rule="evenodd"/><path fill="#575775" d="M13.157 14.312C13.157 6.76 18.51.64 25.116.64h2.63c6.605 0 11.96 6.12 11.96 13.672v35.547h-23.68c-1.584 0-2.87-1.47-2.87-3.282V14.313Z"/><path fill="#494967" d="M15.788 13.765c0-7.249 5.14-13.125 11.48-13.125C33.61.64 38.75 6.516 38.75 13.765V45.21c0 1.813-1.285 3.282-2.87 3.282h-20.09V13.765Z"/><path fill="#EFEFF6" d="M2.395 16.5c0-3.323 2.355-6.016 5.261-6.016h30.136c2.907 0 5.262 2.693 5.262 6.016v21.328c0 3.322-2.355 6.015-5.262 6.015H7.656c-2.906 0-5.261-2.693-5.261-6.015V16.5Z"/><path fill="#262541" fill-rule="evenodd" d="M12.093 19.738c.45-.734 1.335-.913 1.977-.399l8.654 6.925 8.652-6.925c.643-.514 1.528-.335 1.978.4.45.734.294 1.746-.349 2.26l-9.467 7.577a1.277 1.277 0 0 1-1.629 0l-9.467-7.577c-.643-.514-.799-1.526-.35-2.26Z" clip-rule="evenodd"/><path fill="#262541" fill-rule="evenodd" d="M7.576 13.634c-1.307 0-2.367 1.211-2.367 2.706v21.647c0 1.494 1.06 2.706 2.367 2.706H37.87c1.307 0 2.367-1.212 2.367-2.706V16.34c0-1.495-1.06-2.706-2.367-2.706H7.576ZM2.369 16.34c0-3.288 2.33-5.953 5.207-5.953H37.87c2.876 0 5.207 2.665 5.207 5.953v21.647c0 3.288-2.33 5.953-5.207 5.953H7.576c-2.876 0-5.207-2.665-5.207-5.953V16.34Z" clip-rule="evenodd"/><path fill="#6F6F8D" d="M38.749 8.843h38.938c4.286 0 6.43 0 8.067.953 1.44.84 2.61 2.178 3.344 3.824.835 1.872.835 4.322.835 9.223v21.766c0 1.837 0 2.756-.313 3.458a3.107 3.107 0 0 1-1.255 1.434c-.613.358-1.417.358-3.024.358H38.749V8.843Z"/></svg>
